!!!OTL: In dem schoenen Monat Mai, trulala lia trialei do
!!!ARE: Europa, Mitteleuropa, Deutschland, Hohegeiss  Harz
!!!SCT: D0234
!!!YEM: Copyright 1995, estate of Helmut Schaffrath.
**kern
*ICvox
*Ivox
*M2/4
*k[f#]
*G:
{8g
8b
=1
8ee
8b
8dd
8a
=2
4cc
8ff#
8dd
=3
8ccc
16bb
16aa
8gg
16b
16b
=4
4dd}
{8g
8b
=5
8ee
8b
8dd
8a
=6
4cc
8ff#
8dd
=7
8ccc
16bb
16aa
4gg
=8
4dd
4bb}
=9
{8gg
8b
16gg
16b
16b
16gg
=10
16ff#
16a
8a
8cc
8aa
=11
8ff#
8dd
16dd
16ccc
16bb
16aa
=12
16gg
16b
8b
4dd}
=13
{8gg
8b
16gg
16b
16b
16gg
=14
16ff#
16a
8a
8a
8cc
=15
8ff#
8dd
16dd
16ccc
16bb
16aa
=16
4gg}
==
!!!AGN: Staende - Lied, Koehler
!! Inzipit = Variante zum Lied
!!!ONB: ESAC (Essen Associative Code) Database: DVA
!!!AMT: simple duple
!!!AIN: vox
!!!EED: Helmut Schaffrath
!!!EEV: 1.0
*-
